apps/16/microphone.svg

<?xml version="1.0" encoding="UTF-8"?>
<svg id="a" width="16" height="16" version="1.1" xmlns="http://www.w3.org/2000/svg" xmlns:cc="http://creativecommons.org/ns#" xmlns:dc="http://purl.org/dc/elements/1.1/" xmlns:rdf="http://www.w3.org/1999/02/22-rdf-syntax-ns#">
	<metadata id="b">
		<rdf:RDF>
			<cc:Work rdf:about="">
				<dc:format>image/svg+xml</dc:format>
				<dc:type rdf:resource="http://purl.org/dc/dcmitype/StillImage"/>
				<dc:title/>
			</cc:Work>
		</rdf:RDF>
	</metadata>
	<defs>
        <style id="current-color-scheme" type="text/css">.ColorScheme-Text {color:#090d11;}.ColorScheme-Background{color:#ffffff;}</style>
    </defs>
	<path id="d" d="m8 1c-1.108 0-2 0.892-2 2v6c0 1.108 0.892 2 2 2s2-0.892 2-2v-6c0-1.108-0.892-2-2-2zm-4 5v3c0 2.216 1.784 4 4 4s4-1.784 4-4v-3h-1v3c0 1.662-1.338 3-3 3s-3-1.338-3-3v-3h-1zm1 8v1h6v-1h-6z" style="fill:currentColor;fill-opacity:0.75;" class="ColorScheme-Text"/>
	<path id="c" d="m8 0c-1.6447 0-3 1.3553-3 3v6c0 1.662 1.338 3 3 3s3-1.338 3-3v-6c0-1.6447-1.3553-3-3-3zm0 1c1.108 0 2 0.892 2 2v6c0 1.108-0.892 2-2 2s-2-0.892-2-2v-6c0-1.108 0.892-2 2-2zm-5 5v3c0 2.7527 2.2473 5 5 5 2.7527 0 5-2.2473 5-5v-3h-1v3c0 2.216-1.784 4-4 4s-4-1.784-4-4v-3h-1zm2 9v1h6v-1h-6z" style="fill:currentColor;fill-opacity:0.5;" class="ColorScheme-Background"/>
</svg>

<?xml version="1.0" encoding="UTF-8" standalone="no"?>
<!-- Created with Inkscape (http://www.inkscape.org/) -->

<svg
   xmlns:dc="http://purl.org/dc/elements/1.1/"
   xmlns:cc="http://creativecommons.org/ns#"
   xmlns:rdf="http://www.w3.org/1999/02/22-rdf-syntax-ns#"
   xmlns:svg="http://www.w3.org/2000/svg"
   xmlns="http://www.w3.org/2000/svg"
   xmlns:sodipodi="http://sodipodi.sourceforge.net/DTD/sodipodi-0.dtd"
   xmlns:inkscape="http://www.inkscape.org/namespaces/inkscape"
   version="1.1"
   width="16"
   height="16"
   id="svg2"
   inkscape:version="0.91+devel r"
   sodipodi:docname="microphone.svg">
  <sodipodi:namedview
     pagecolor="#ffffff"
     bordercolor="#666666"
     borderopacity="1"
     objecttolerance="10"
     gridtolerance="10"
     guidetolerance="10"
     inkscape:pageopacity="0"
     inkscape:pageshadow="2"
     inkscape:window-width="1920"
     inkscape:window-height="1033"
     id="namedview6"
     showgrid="true"
     inkscape:zoom="41.7193"
     inkscape:cx="14.302855"
     inkscape:cy="6.8651211"
     inkscape:window-x="-10"
     inkscape:window-y="25"
     inkscape:window-maximized="1"
     inkscape:current-layer="svg2"
     inkscape:snap-global="true"
     inkscape:snap-bbox="true"
     inkscape:bbox-paths="true"
     inkscape:bbox-nodes="true"
     inkscape:snap-bbox-edge-midpoints="true"
     inkscape:snap-bbox-midpoints="true"
     inkscape:object-paths="true"
     inkscape:snap-intersection-paths="true"
     inkscape:object-nodes="true"
     inkscape:snap-smooth-nodes="true"
     inkscape:snap-midpoints="true"
     inkscape:snap-object-midpoints="true"
     inkscape:snap-center="true"
     inkscape:snap-page="true"
     inkscape:snap-text-baseline="true">
    <inkscape:grid
       type="xygrid"
       id="grid2982"
       empspacing="5"
       visible="true"
       enabled="true"
       snapvisiblegridlinesonly="true" />
  </sodipodi:namedview>
  <defs
     id="defs4" />
  <metadata
     id="metadata7">
    <rdf:RDF>
      <cc:Work
         rdf:about="">
        <dc:format>image/svg+xml</dc:format>
        <dc:type
           rdf:resource="http://purl.org/dc/dcmitype/StillImage" />
        <dc:title></dc:title>
      </cc:Work>
    </rdf:RDF>
  </metadata>
  <path
     style="color:#000000;display:inline;overflow:visible;visibility:visible;opacity:1;fill:#27303a;fill-opacity:0.753280819999999968;fill-rule:nonzero;stroke:none;stroke-width:1;stroke-linecap:butt;stroke-linejoin:miter;stroke-miterlimit:4;stroke-dasharray:none;stroke-dashoffset:0;stroke-opacity:1;marker:none;enable-background:accumulate"
     d="M 8 1 C 6.892 1 6 1.892 6 3 L 6 9 C 6 10.108 6.892 11 8 11 C 9.108 11 10 10.108 10 9 L 10 3 C 10 1.892 9.108 1 8 1 z M 4 6 L 4 9 C 4 11.216 5.784 13 8 13 C 10.216 13 12 11.216 12 9 L 12 6 L 11 6 L 11 9 C 11 10.662 9.662 12 8 12 C 6.338 12 5 10.662 5 9 L 5 6 L 4 6 z M 5 14 L 5 15 L 11 15 L 11 14 L 5 14 z "
     id="path4238" />
  <path
     style="color:#000000;font-style:normal;font-variant:normal;font-weight:normal;font-stretch:normal;font-size:medium;line-height:normal;font-family:sans-serif;text-indent:0;text-align:start;text-decoration:none;text-decoration-line:none;text-decoration-style:solid;text-decoration-color:#000000;letter-spacing:normal;word-spacing:normal;text-transform:none;direction:ltr;block-progression:tb;writing-mode:lr-tb;baseline-shift:baseline;text-anchor:start;white-space:normal;shape-padding:0;clip-rule:nonzero;display:inline;overflow:visible;visibility:visible;opacity:1;isolation:auto;mix-blend-mode:normal;color-interpolation:sRGB;color-interpolation-filters:linearRGB;solid-color:#000000;solid-opacity:1;fill:#f1f3f5;fill-opacity:0.90288714000000003;fill-rule:nonzero;stroke:none;stroke-width:2;stroke-linecap:butt;stroke-linejoin:miter;stroke-miterlimit:4;stroke-dasharray:none;stroke-dashoffset:0;stroke-opacity:1;marker:none;color-rendering:auto;image-rendering:auto;shape-rendering:auto;text-rendering:auto;enable-background:accumulate"
     d="M 8 0 C 6.3552972 0 5 1.3552972 5 3 L 5 9 C 5 10.662 6.338 12 8 12 C 9.662 12 11 10.662 11 9 L 11 3 C 11 1.3552972 9.6447028 0 8 0 z M 8 1 C 9.108 1 10 1.892 10 3 L 10 9 C 10 10.108 9.108 11 8 11 C 6.892 11 6 10.108 6 9 L 6 3 C 6 1.892 6.892 1 8 1 z M 3 6 L 3 9 C 3 11.752703 5.2472972 14 8 14 C 10.752703 14 13 11.752703 13 9 L 13 6 L 12 6 L 12 9 C 12 11.216 10.216 13 8 13 C 5.784 13 4 11.216 4 9 L 4 6 L 3 6 z M 5 15 L 5 16 L 11 16 L 11 15 L 5 15 z "
     id="path4235" />
</svg>
